X:300
T:Highland Schottische
M:4/4
K:G
G2 (3BBB G2 B>G | F2 (3AAA F2 A>F |
G2 (3BBB G2 B2 | D>D E>F G4 :||
G2 A>B c>A c>A | E2 A>G F>E D2 |
G2 A>B c>A c>A | D>D E>F G4 :||
